!!!!SEGMENT: pl-gd--ee-1638--003-011_marenzio-luca--madrigali-a-quatro-voci-vedi-le-valli-e-i-campi.krn
!!!cenid: 15xx:985
!!!COM: Marenzio, Luca
!!!COM-rismID: pe30003955
!!!CDT: ~1553-1599/08/22
!!!CNT: Italian
!!!GTL: Madrigali a quatro voci
!!!OTL: Vedi le valli e i campi
!!!OMV: 011
!!!PDT: 1587
!!!AGN:
!!!SMS-siglum: PL-GD
!!!SMS-shelfmark: Ee 1638
!!!SMS-shelfwork: 003-011 G
!!!SMS-variant:
!!!SMS-altvar:
!!!NIFC-rismSourceID: 1001202747
!!!NIFC-rismChildID: 990039322
!!!NIFC-islandoraID: pl-gd:57883
!!!URL-pdf-islandora: https://repozytorium.nifc.pl/islandora/object/pl-gd%3A57883/datastream/PDF/view
!!!URL-scan: https://polish.musicsources.pl/pl/lokalizacje/galeria/klocki-introligatorskie/655 @EN{Scan on Polish Music Sources Website} @PL{Skany w portalu Dziedzictwo Muzyki Polskiej w otwartym dostępie}
!!!ONB-nifc: UWAGA: zbiór na stronach: Canto: s. 637-653, Alto: s. do 486-501, Tenore: s. do 334-349, Bassus: s. do 182-197. Uwaga: utwory podzielone wg tytułów w spisach treści dostępnych na końcu każdej księgi głosowej.
!!!AIN: 1 alto 1 bass 1 soprn 1 tenor
!!!key: C
**kern	**text	**kern	**text	**kern	**text	**kern	**text
*part4	*part4	*part3	*part3	*part2	*part2	*part1	*part1
*staff4	*staff4	*staff3	*staff3	*staff2	*staff2	*staff1	*staff1
*I"BASSO	*	*I"TENORE	*	*I"ALTO	*	*I"CANTO	*
*I'B	*	*I'T	*	*I'A	*	*I'S	*
*ICvox	*	*ICvox	*	*ICvox	*	*ICvox	*
*Ibass	*	*Itenor	*	*Ialto	*	*Isoprn	*
*clefC4	*	*clefC3	*	*clefC2	*	*clefG2	*
*k[]	*	*k[]	*	*k[]	*	*k[]	*
*C:	*	*C:	*	*C:	*	*C:	*
*M2/1	*	*M2/1	*	*M2/1	*	*M2/1	*
*met(C)	*	*met(C)	*	*met(C)	*	*met(C)	*
=1-	=1-	=1-	=1-	=1-	=1-	=1-	=1-
1r	.	1r	.	1r	.	1cc	VE-
1c	VE-	1e	VE-	2r	.	1g	-di
.	.	.	.	1cc\	VE-	.	.
=2-	=2-	=2-	=2-	=2-	=2-	=2-	=2-
1G	-di	1d	-di	.	.	4r	.
.	.	.	.	.	.	4.gg\	Ve-
.	.	.	.	2b\	-di	.	.
.	.	.	.	.	.	8gg\	-di
.	.	.	.	.	.	4dd\	le
1r	.	1r	.	4r	.	4.ee\	val-
.	.	.	.	4.cc\	Ve-	.	.
.	.	.	.	.	.	8ee\	li e i
.	.	.	.	.	.	4ee\	cam-
.	.	.	.	8cc\	-di	.	.
.	.	.	.	4g\	le	4dd\	-pi
=3-	=3-	=3-	=3-	=3-	=3-	=3-	=3-
0r	.	0r	.	4.a\	val-	2cc\	che
.	.	.	.	8a\	li e i	.	.
.	.	.	.	4a\	cã(m)-	2ee\	ſi
.	.	.	.	4g\	-pi	.	.
.	.	.	.	4f\	che	8dd\	ſmal-
.	.	.	.	.	.	8cc\	.
.	.	.	.	4e/	ſi	2cc\	.
.	.	.	.	4.d/	ſmal-	.	.
.	.	.	.	.	.	4b/	-ta-
.	.	.	.	8d/	-ta-	.	.
=4-	=4-	=4-	=4-	=4-	=4-	=4-	=4-
2r	.	2r	.	2c/	-no	1cc	-no
1c	Ve-	1e	Ve-	1cc	Ve-	.	.
!	!	!	!	!	!	!LO:SIC:v:t=custos ee	!
.	.	.	.	.	.	1gg	Ve-
!	!	!	!	!LO:SIC:v:t=custos cc	!	!LO:LB:g=original	!
2G/	-di	2d\	-di	2b\	-di	.	.
!	!	!	!	!LO:LB:g=original	!	!	!
=5-	=5-	=5-	=5-	=5-	=5-	=5-	=5-
4r	.	4r	.	2cc\	Ve-	2ee\	-di
4.c\	Ve-	4.e\	Ve-	.	.	.	.
.	.	.	.	2g\	-di	2r	.
8c\	-di	8e\	-di	.	.	.	.
4G/	le	4d\	le	.	.	.	.
4.A/	val-	4.c/	val-	1r	.	1r	.
8A/	li e i	8c/	li e i	.	.	.	.
4A/	cã(m)-	4c/	cam-	.	.	.	.
4G/	-pi	4B/	-pi	.	.	.	.
=6-	=6-	=6-	=6-	=6-	=6-	=6-	=6-
!	!	!	!	!LO:TX:t=P:problem: po 1r występuje w źródle jeszcze 4r	!	!	!
!	!	!	!	!LO:N:vis=1	!	!	!
4F/	che	4A/	che	2r	.	4.cc\	Di
4E/	ſi	4c/	ſi	.	.	.	.
.	.	.	.	.	.	8cc\	co-
!	!	!	!	!LO:N:vis=4	!	!	!
4.D/	ſmal-	4.B/	ſmal-	2r	.	2dd\	-lor
!LO:SIC:v:t=custos C	!	!LO:SIC:v:t=custos c	!	!	!	!	!
8D/	-ta-	8B/	-ta-	.	.	.	.
!LO:LB:g=original	!	!LO:LB:g=original	!	!	!	!	!
2C/	-no	2c/	-no	4.g\	Di	4ee\	mil-
.	.	.	.	.	.	4ee\	-le
.	.	.	.	8g\	co-	.	.
4.c\	Di	4.e\	Di	2a\	-lor	2r	.
8c\	co-	8e\	co-	.	.	.	.
=7-	=7-	=7-	=7-	=7-	=7-	=7-	=7-
2d\	-lor	2f#X\	-lor	4.b\	Di	2r	.
.	.	.	.	8b\	co-	.	.
4e\	mil-	4g\	mil-	2cc\	-lor	4.ee\	Di
4e\	-le	4g\	-le	.	.	.	.
.	.	.	.	.	.	8ee\	co-
2r	.	2r	.	2a\	mil-	2ff#X\	-lor
4.c\	Di	4.e\	Di	2g\	-le	4gg\	mil-
.	.	.	.	.	.	4gg\	-le
8c\	co-	8e\	co-	.	.	.	.
=8-	=8-	=8-	=8-	=8-	=8-	=8-	=8-
2A/	-lor	2f#X\	-lor	2r	.	2r	.
4G/	mil-	4g\	mil-	4r	.	4r	.
4G/	-le	4d\	-le	4g\	&	4gg\	&
1r	.	1r	.	4.a\	con	4.ffny\	con
.	.	.	.	8b\	la	8dd\	la
.	.	.	.	4.cc\	pi-	4.ee\	pi-
.	.	.	.	8a\	ua e'l	8cc\	ua e'l
=9-	=9-	=9-	=9-	=9-	=9-	=9-	=9-
0r	.	0r	.	4.b\	cro-	4.dd\	cro-
.	.	.	.	8b\	-ta-	8dd\	-ta-
.	.	.	.	4.cc\	-lo	4.cc\	-lo
!	!	!	!	!LO:SIC:v:t=custos a	!	!LO:SIC:v:t=custos ff	!
.	.	.	.	8g\	&	8gg\	&
!	!	!	!	!LO:LB:g=original	!	!LO:LB:g=original	!
.	.	.	.	4.a\	con	4.ff\	con
.	.	.	.	8b\	la	8dd\	la
.	.	.	.	4.cc\	pi-	4.ee\	pi-
.	.	.	.	8a\	ua e'l	8cc\	ua e'l
=10-	=10-	=10-	=10-	=10-	=10-	=10-	=10-
2r	.	2r	.	4.b\	cro-	4.dd\	cro-
.	.	.	.	8b\	-ta-	8dd\	-ta-
4r	.	4r	.	2cc\	-lo	2cc\	-lo
4c\	In-	4e\	In-	.	.	.	.
8c\	-tor-	8e\	-tor-	1r	.	1r	.
8B\	.	8d\	.	.	.	.	.
8c\	.	8e\	.	.	.	.	.
8d\	.	8fny\	.	.	.	.	.
4c\	.	4e\	.	.	.	.	.
!	!	!LO:SIC:v:t=custos g	!	!	!	!	!
4d\	no ai	4f\	no ai	.	.	.	.
!	!	!LO:LB:g=original	!	!	!	!	!
=11-	=11-	=11-	=11-	=11-	=11-	=11-	=11-
2e\	fon-	2g\	fon-	1r	.	1r	.
4e\	ti i	4g\	ti i	.	.	.	.
!LO:SIC:v:t=custos c	!	!	!	!	!	!	!
4d\	pa-	4f\	paſ-	.	.	.	.
!LO:LB:g=original	!	!	!	!	!	!	!
2c\	-ſtor	2e\	-tor	4g\	i	4ee\	i
.	.	.	.	4a\	paſ-	4ff\	paſ-
8G/	lie-	4.d\	lie-	2b\	-tor	2gg\	-tor
8A/	.	.	.	.	.	.	.
8B\	.	.	.	.	.	.	.
8c\	.	8g\	-ti	.	.	.	.
=12-	=12-	=12-	=12-	=12-	=12-	=12-	=12-
4d\	.	4.f#X\	ſal-	2a\	lie-	2r	.
4d\	-ti	.	.	.	.	.	.
.	.	8f#\	-ta-	.	.	.	.
8G/	lie-	2g\	-no	2b\	-ti	4.dd\	lie-
8A/	.	.	.	.	.	.	.
8B\	.	.	.	.	.	.	.
8c\	.	.	.	.	.	8gg\	-ti
4d\	.	2r	.	4.a\	ſal-	4.ff#X\	ſal-
4d\	-ti	.	.	.	.	.	.
.	.	.	.	8a\	-ta-	8ff#\	-ta-
8G/	lie-	4.d\	lie-	2b\	-no	2gg\	-no
8A/	.	.	.	.	.	.	.
8B\	.	.	.	.	.	.	.
8c\	.	8g\	-ti	.	.	.	.
=13-	=13-	=13-	=13-	=13-	=13-	=13-	=13-
4d\	.	4.f#X\	ſal-	4.a\	ſal-	4r	.
4D/	-ti	.	.	.	.	2dd\	lie-
.	.	8f#\	-ta-	8a\	-ta-	.	.
4.G/	ſal-	1g	-no	2b\	-no	.	.
.	.	.	.	.	.	4dd\	-ti
8G/	-ta-	.	.	.	.	.	.
2C/	-no	.	.	4.cc\	ſal-	4.ee\	ſal-
.	.	.	.	8cc\	-ta-	8ee\	-ta-
!	!	!	!	!LO:SIC:v:t=custos g	!	!LO:SIC:v:t=custos cc	!
4r	.	4r	.	2b\	-no	2dd\	-no
!LO:SIC:v:t=custos A	!	!	!	!	!	!	!
4G/	&	4g\	&	.	.	.	.
!LO:LB:g=original	!	!	!	!LO:LB:g=original	!	!LO:LB:g=original	!
=14-	=14-	=14-	=14-	=14-	=14-	=14-	=14-
4.A/	con	4.fny\	con	1r	.	2r	.
8B\	la	8d\	la	.	.	.	.
4.c\	pi-	4.e\	pi-	.	.	4.cc\	ſal-
!	!	!LO:SIC:v:t=custos d	!	!	!	!	!
8A/	ua e'l	8c/	ua e'l	.	.	8cc\	-ta-
!	!	!LO:LB:g=original	!	!	!	!	!
4.B\	cro-	4.d\	cro-	4.g\	ſal-	2gg\	-no
8B\	-ta-	8d\	-ta-	8g\	-ta-	.	.
2c\	-lo	2c/	-lo	4e/	-no	4r	.
.	.	.	.	4g\	&	4gg\	&
=15-	=15-	=15-	=15-	=15-	=15-	=15-	=15-
1r	.	2r	.	4.a\	con	4.ffny\	con
.	.	.	.	8b\	la	8dd\	la
.	.	4.c/	ſal-	4.cc\	pi-	4.ee\	pi-
.	.	8c/	-ta-	8a\	ua e'l	8cc\	ua e'l
4r	.	4g\	-no	4.b\	cro-	4.dd\	cro-
4G/	&	4g\	&	.	.	.	.
.	.	.	.	8b\	-ta-	8dd\	-ta-
4.A/	con	4.c/	con	2cc\	-lo	2cc\	-lo
8B\	la	8d\	la	.	.	.	.
=16-	=16-	=16-	=16-	=16-	=16-	=16-	=16-
4.c\	pi-	4.e\	pi-	2r	.	4.cc\	ſal-
8A/	ua e'l	8f\	ua e'l	.	.	8cc\	-ta-
4.B\	cro-	4.d\	cro-	4.g\	ſal-	2gg\	-no
8B\	-ta-	8d\	-ta-	8g\	-ta-	.	.
4.c\	-lo	4.c/	-lo	2g\	-no	4.gg\	ſal-
8G/	&	8g\	&	.	.	8gg\	-ta-
4.A/	con	4.f\	con	4r	.	4cc\	-no
.	.	.	.	4.a\	ſal-	4r	.
!LO:SIC:v:t=custos c	!	!	!	!	!	!	!
8B\	la	8d\	la	.	.	.	.
!LO:LB:g=original	!	!	!	!	!	!	!
=17-	=17-	=17-	=17-	=17-	=17-	=17-	=17-
4.c\	pi-	4.e\	pi-	.	.	4.cc\	ſal-
.	.	.	.	8g\	-ta-	.	.
.	.	.	.	4a\	-no	.	.
8A/	ua e'l	8c/	ua e'l	.	.	8cc\	-ta-
!	!	!	!	!	!	!LO:SIC:v:t=custos gg	!
4.B\	cro-	4.d\	cro-	4r	.	2gg\	-no
.	.	.	.	4.g\	ſal-	.	.
8B\	-ta-	8d\	-ta-	.	.	.	.
!	!	!LO:SIC:v:t=custos d	!	!	!	!LO:LB:g=original	!
1c	-lo	1e	-lo	.	.	4.gg\	ſal-
.	.	.	.	8g\	-ta-	.	.
.	.	.	.	4c/	-no	.	.
.	.	.	.	.	.	8gg\	-ta-
.	.	.	.	4r	.	4cc\	-no
!	!	!	!	!LO:SIC:v:t=custos a	!	!	!
.	.	.	.	4g\	In	4cc\	In-
!	!	!LO:LB:g=original	!	!LO:LB:g=original	!	!	!
=18-	=18-	=18-	=18-	=18-	=18-	=18-	=18-
0r	.	0r	.	8a\	tor-	8cc\	-tor-
.	.	.	.	8g\	.	8b\	.
.	.	.	.	8a\	.	8cc\	.
.	.	.	.	8b\	.	8dd\	.
.	.	.	.	4a\	.	4cc\	.
.	.	.	.	4b\	no ai	4dd\	no ai
.	.	.	.	2cc\	fon-	2ee\	fon-
.	.	.	.	4cc\	ti i	4ee\	ti i
.	.	.	.	4a\	paſ-	4cc\	paſ-
=19-	=19-	=19-	=19-	=19-	=19-	=19-	=19-
8G/	lie-	4.d\	lie-	2b\	-tor	2dd\	-tor
8A\	.	.	.	.	.	.	.
8B\	.	.	.	.	.	.	.
8c\	.	8g\	-ti	.	.	.	.
4d\	.	4.f#X\	ſal-	2a\	lie-	2r	.
4d\	-ti	.	.	.	.	.	.
.	.	8f#\	-ta-	.	.	.	.
8G/	lie-	2g\	-no	2b\	-ti	4.dd\	lie-
8A/	.	.	.	.	.	.	.
8B\	.	.	.	.	.	.	.
8c\	.	.	.	.	.	8gg\	-ti
4d\	.	2r	.	4.a\	ſal-	4.ff#X\	ſal-
4D/	-ti	.	.	.	.	.	.
.	.	.	.	8a\	-ta-	8ff#\	-ta-
=20-	=20-	=20-	=20-	=20-	=20-	=20-	=20-
4.G/	ſal-	4.d\	ſal-	2b\	-no	2gg\	-no
8G/	-ta-	8d\	-ta-	.	.	.	.
2C/	-no	2e\	-no	4.cc\	ſal-	4.gg\	ſal-
.	.	.	.	8cc\	-ta-	8gg\	-ta-
!	!	!	!	!	!	!LO:SIC:v:t=custos cc	!
4.c\	ſal-	4.e\	ſal-	2g\	-no	2ee\	-no
8c\	-ta-	8e\	-ta-	.	.	.	.
!LO:SIC:v:t=custos f	!	!	!	!	!	!LO:LB:g=original	!
*	*	*	*	*	*ij	*	*
2F/	-no	2fny\	-no	4.a\	ſal-	4r	.
.	.	.	.	.	.	4.cc\	ſal-
.	.	.	.	8a\	-ta-	.	.
!LO:LB:g=original	!	!	!	!	!	!	!
=21-	=21-	=21-	=21-	=21-	=21-	=21-	=21-
4.f\	ſal-	4.a\	ſal-	2cc\	-no	.	.
.	.	.	.	.	.	8cc\	-ta-
.	.	.	.	.	.	2f/	-no
8f\	-ta-	8a\	-ta-	.	.	.	.
2B-X\	-no	2d\	-no	4.b-X\	ſal-	.	.
.	.	.	.	.	.	4.ffny\	ſal-
!	!	!	!	!LO:SIC:v:t=custos a	!	!	!
.	.	.	.	8b-\	-ta-	.	.
!	!	!	!	!LO:LB:g=original	!	!	!
1d	Ve-	1f	Ve-	2a\	-no	.	.
.	.	.	.	.	.	8ff\	-ta-
.	.	.	.	.	.	4dd\	-no
*	*	*	*	*	*Xij	*	*
.	.	.	.	1a\	Ve-	1dd\	Ve-
=22-	=22-	=22-	=22-	=22-	=22-	=22-	=22-
1A	-di	1e	-di	.	.	.	.
.	.	.	.	2a\	-di	2cc#X\	-di
4r	.	4r	.	4r	.	4r	.
4.d\	Ve-	4.f\	Ve-	4.a\	Ve-	4.dd\	Ve-
8d\	di il	8f\	di il	8a\	di il	8dd\	di il
!	!	!LO:SIC:v:t=custos a	!	!	!	!	!
4c\	mõ(n)-	4g\	mon-	4cc\	mon-	4ee\	mon-
!	!	!LO:LB:g=original	!	!	!	!	!
=23-	=23-	=23-	=23-	=23-	=23-	=23-	=23-
4f\	-ton	4a\	-ton	4cc\	-ton	4ff\	-ton
4d\	di	4a\	di	4dd\	di	4ff\	di
2e\	Fri-	2g#X\	Fri-	2bny\	Fri-	2ee\	Fri-
2A/	ſo &	2a\	ſo &	2cc\	-ſo	2ee\	-ſo
2d\	ſe-	2f\	ſe-	2r	.	2r	.
=24-	=24-	=24-	=24-	=24-	=24-	=24-	=24-
2c\	-gna	2gny\	-gna	4r	.	4r	.
.	.	.	.	4cc\	&	4ee\	&
2r	.	2r	.	4.cc\	no-	4.dd\	no-
.	.	.	.	8a\	-ta-	8ccny\	-ta-
!	!	!	!	!	!	!LO:SIC:v:t=custos a	!
4r	.	4r	.	2g\	-lo	2b/	-lo
4G/	&	4g\	&	.	.	.	.
!	!	!	!	!	!	!LO:LB:g=original	!
4.A/	no-	4.c/	no-	2r	.	2r	.
8Bny\	-ta-	8d\	-ta-	.	.	.	.
=25-	=25-	=25-	=25-	=25-	=25-	=25-	=25-
2c\	-lo	2e\	-lo	2r	.	2r	.
2.F/	Clo-	2.c/	Clo-	2.f\	Clo-	2.a/	Clo-
4F/	-ni-	4c/	-ni-	4f\	-ni-	4a/	-ni-
!LO:SIC:v:t=custos E	!	!	!	!	!	!	!
2A/	-co	2c/	-co	2e/	-co	2a/	-co
!LO:LB:g=original	!	!	!	!	!	!	!
=26-	=26-	=26-	=26-	=26-	=26-	=26-	=26-
1E	dol-	1B	dol-	1e	dol-	1g#X	dol-
!	!	!	!	!LO:SIC:v:t=custos e	!	!	!
1E	-ce	1B	-ce	1e	-ce	1g#	-ce
!	!	!	!	!LO:LB:g=original	!	!	!
=27-	=27-	=27-	=27-	=27-	=27-	=27-	=27-
4r	.	4r	.	4r	.	4r	.
4A/	&	4c/	&	4e/	&	4a/	&
4A/	non	4c/	non	4e/	non	4a/	non
4G/	ti	4d\	ti	4g\	ti	4b/	ti
4c\	uin-	4e\	vin-	4g\	uin-	4cc\	vin-
4e\	ca il	4g\	ca il	4g\	ca il	4b/	ca il
4.d\	te-	4.f#X\	te-	4.a\	te-	4.dd\	te-
!	!	!LO:SIC:v:t=custos g	!	!	!	!	!
8d\	-di-	8f#\	-di-	8a\	-di-	8dd\	-di-
!	!	!LO:LB:g=original	!	!	!	!	!
=28-	=28-	=28-	=28-	=28-	=28-	=28-	=28-
2G/	-o	2g\	-o	2b\	-o	2dd\	-o
2G/	Ch'in	2d\	Ch'in	4r	.	2b/	Ch'in
.	.	.	.	4g\	Ch'in	.	.
2F/	po-	2fny\	po-	2a\	po-	2cc\	po-
2D/	-chi	2f\	-chi	2b\	-chi	2dd\	-chi
=29-	=29-	=29-	=29-	=29-	=29-	=29-	=29-
1C	di	4.g\	dì	2cc\	dì	4.ee\	dì
.	.	8f\	.	.	.	8ff\	cõ(n)-
.	.	2e\	.	2g\	Ch'in	4gg\	-uien
!	!	!	!	!	!	!LO:SIC:v:t=custos a	!
.	.	.	.	.	.	4gny/	che'l
!	!	!	!	!	!	!LO:LB:g=original	!
1r	.	1r	.	2f\	po-	4a/	ſol
.	.	.	.	.	.	4cc\	per-
.	.	.	.	2d/	-chi	4.b/	-co-
.	.	.	.	.	.	8b/	-ta-
=30-	=30-	=30-	=30-	=30-	=30-	=30-	=30-
2r	.	2r	.	4.c/	dì	1cc	-lo
.	.	.	.	8B/	cõ(n)-	.	.
2c\	Ch'in	2e\	Ch'in	4A/	-uien	.	.
.	.	.	.	4c/	che'l	.	.
2B-X\	po-	2f\	po-	4d/	ſol	1r	.
!	!	!	!	!LO:SIC:v:t=custos e	!	!	!
.	.	.	.	4f\	per-	.	.
!	!	!	!	!LO:LB:g=original	!	!	!
2G/	-chi	2g\	-chi	4.e/	-co-	.	.
.	.	.	.	8e/	-ta-	.	.
=31-	=31-	=31-	=31-	=31-	=31-	=31-	=31-
2F/	dì	4.a\	dì	2f\	-lo	2r	.
.	.	8a\	con-	.	.	.	.
2G/	Ch'in	4g\	-uien	2d/	Ch'in	4r	.
.	.	4G/	che'l	.	.	4b/	Ch'in
2F/	po-	4A/	ſol	2.f\	po-	2cc\	po-
.	.	4c/	per-	.	.	.	.
!LO:SIC:v:t=custos C	!	!	!	!	!	!	!
2D/	-chi	4.B/	-co-	.	.	2dd\	-chi
.	.	.	.	4d/	-chi	.	.
!	!	!LO:SIC:v:t=custos c	!	!	!	!	!
.	.	8B/	-ta-	.	.	.	.
!LO:LB:g=original	!	!LO:LB:g=original	!	!	!	!	!
=32-	=32-	=32-	=32-	=32-	=32-	=32-	=32-
4.C/	dì	2c/	-lo	4.g\	dì	4.ee\	dì
8D/	con-	.	.	8f\	con-	8ff\	con-
4E/	-uien	4B/	che'l	4.e/	-uien	4gg\	-uien
4E/	che'l	2c/	ſol	.	.	4g/	che'l
.	.	.	.	8g\	che'l	.	.
4F/	ſol	.	.	4.f\	ſol	4a/	ſol
4A/	per-	4c/	per-	.	.	4cc\	per-
.	.	.	.	8e/	per-	.	.
4.G/	-co-	4.d\	-co-	4.g\	-co-	4.b/	-co-
8G/	-ta-	8d\	-ta-	8g\	-ta-	8b/	-ta-
=33-	=33-	=33-	=33-	=33-	=33-	=33-	=33-
00C	-lo.	00c	-lo.	00g	-lo.	00cc	-lo.
==	==	==	==	==	==	==	==
*-	*-	*-	*-	*-	*-	*-	*-
!!!system-decoration: [(s1,s2,s3,s4)]
!!!ENC: Mateusz Solarz
!!!END: 2022-06-27
!!!ENC: Natalia Wrzos
!!!END: 2022-07-12
!!!YEC: Copyright 2022 Narodowy Instytut Fryderyka Chopina (https://polishscores.org)
!!!YEM: License CC-BY-4.0 (https://creativecommons.org/licenses/by/4.0)
